app/dist/common/images/epigenomics-ag.svg

<svg fill="none" height="18" viewBox="0 0 18 18" width="18" xmlns="http://www.w3.org/2000/svg"><path d="m0 0h18v18h-18z" fill="#f0f3fa"/><path d="m3 8.53009c0-1.4379.85687-2.53009 2.55031-2.53009 1.72856 0 2.44969.99243 2.44969 2.41971v.08029h-4c.027.81279.61441 1.5 1.58387 1.5.77236 0 1.17856-.15548 1.56609-.71688l.85004.46688c-.49296.818-1.39449 1.25-2.42722 1.25-1.6048 0-2.57278-1.08186-2.57278-2.46991zm1.00669-.53009h2.99331c-.11862-.71956-.62198-1-1.44969-1-.78332 0-1.42446.31731-1.54362 1z" fill="#191516"/><path d="m9 8.5c0-1.35774.89367-2.5 2.3157-2.5h2.6843v4.7973c0 1.709-.5478 3.2027-2.4001 3.2027-1.3715 0-2.57144-.5779-2.5999-2h1c0 .9135.7699 1 1.642 1 1.1379 0 1.358-.9746 1.358-1.9992v-1.00273c-.0286 0-.5745 1.00193-1.6422 1.00193-1.49845 0-2.3578-1.04702-2.3578-2.5zm2.5052 1.5506c1.0448 0 1.4948-.57739 1.4948-1.5506 0-.99064-.4989-1.5-1.5053-1.5-.9669 0-1.4947.58757-1.4947 1.5 0 .92759.5169 1.5506 1.5052 1.5506z" fill="#7e8981"/></svg>

<!-- by TradingView --><svg width="18" height="18" viewBox="0 0 18 18" fill="none" xmlns="http://www.w3.org/2000/svg">
<rect width="18" height="18" fill="#F0F3FA"/>
<path d="M3 8.53009C3 7.09219 3.85687 6 5.55031 6C7.27887 6 8 6.99243 8 8.41971V8.5L4 8.5C4.027 9.31279 4.61441 10 5.58387 10C6.35623 10 6.76243 9.84452 7.14996 9.28312L8 9.75C7.50704 10.568 6.60551 11 5.57278 11C3.96798 11 3 9.91814 3 8.53009ZM4.00669 8H7C6.88138 7.28044 6.37802 7 5.55031 7C4.76699 7 4.12585 7.31731 4.00669 8Z" fill="#191516"/>
<path d="M9 8.5C9 7.14226 9.89367 6 11.3157 6C12.7013 6 12.0968 6 14 6V10.7973C14 12.5063 13.4522 14 11.5999 14C10.2284 14 9.02846 13.4221 9 12H10C10 12.9135 10.7699 13 11.642 13C12.7799 13 13 12.0254 13 11.0008V9.99807C12.9714 9.99807 12.4255 11 11.3578 11C9.85935 11 9 9.95298 9 8.5ZM11.5052 10.0506C12.55 10.0506 13 9.47321 13 8.5C13 7.50936 12.5011 7 11.4947 7C10.5278 7 10 7.58757 10 8.5C10 9.42759 10.5169 10.0506 11.5052 10.0506Z" fill="#7E8981"/>
</svg>
